flaticon/army-badges/badge-7.svg

<svg xmlns="http://www.w3.org/2000/svg" width="32" height="32" viewBox="0 0 24 24">
    <path d="M 16.890625 8.199219 C 16.972656 8.078125 16.972656 7.917969 16.890625 7.796875 C 16.8125 7.679688 16.691406 7.597656 16.53125 7.597656 L 7.445312 7.597656 C 7.328125 7.597656 7.207031 7.679688 7.125 7.796875 C 7.046875 7.917969 7.046875 8.078125 7.125 8.199219 L 11.648438 16.800781 C 11.730469 16.921875 11.847656 17.003906 12.007812 17.003906 C 12.167969 17.003906 12.289062 16.921875 12.367188 16.800781 Z M 12.007812 15.722656 L 8.128906 8.398438 L 15.890625 8.398438 Z M 12.007812 15.722656"/>
    <path d="M 22.652344 7.453125 C 22.691406 7.402344 22.71875 7.335938 22.730469 7.261719 L 23.28125 5.867188 C 23.332031 5.808594 23.363281 5.730469 23.371094 5.636719 L 23.972656 4.117188 C 24.015625 3.996094 24.015625 3.875 23.933594 3.757812 C 23.855469 3.675781 23.734375 3.597656 23.613281 3.597656 L 17.609375 3.597656 C 17.492188 3.597656 17.371094 3.675781 17.25 3.796875 L 15.785156 5.996094 L 8.21875 5.996094 L 6.726562 3.757812 C 6.644531 3.675781 6.527344 3.597656 6.40625 3.597656 L 0.402344 3.597656 C 0.285156 3.597656 0.164062 3.714844 0.0820312 3.796875 C 0.00390625 3.875 -0.0351562 4.035156 0.0429688 4.15625 L 0.652344 5.683594 C 0.660156 5.742188 0.683594 5.792969 0.710938 5.835938 L 1.296875 7.304688 C 1.304688 7.347656 1.320312 7.386719 1.34375 7.421875 L 1.941406 8.925781 C 1.949219 8.953125 1.960938 8.980469 1.972656 9.003906 L 3.003906 11.601562 C 3.164062 12 3.40625 12.398438 3.683594 12.71875 C 4.527344 13.800781 5.804688 14.402344 7.167969 14.402344 L 8.578125 14.402344 L 11.648438 20.203125 C 11.730469 20.324219 11.847656 20.402344 12.007812 20.402344 C 12.167969 20.402344 12.289062 20.324219 12.367188 20.203125 L 15.441406 14.402344 L 16.851562 14.402344 C 18.210938 14.402344 19.492188 13.800781 20.332031 12.71875 C 20.613281 12.398438 20.851562 12 21.011719 11.601562 L 22.027344 9.03125 C 22.054688 8.992188 22.074219 8.945312 22.082031 8.890625 Z M 7.207031 13.5625 C 6.085938 13.5625 5.046875 13.082031 4.324219 12.199219 C 4.085938 11.921875 3.886719 11.601562 3.765625 11.28125 L 2.929688 9.199219 L 4.40625 9.199219 C 4.644531 9.199219 4.804688 9.039062 4.804688 8.796875 C 4.804688 8.558594 4.644531 8.398438 4.40625 8.398438 L 2.609375 8.398438 L 2.289062 7.597656 L 3.605469 7.597656 C 3.84375 7.597656 4.003906 7.4375 4.003906 7.199219 C 4.003906 6.957031 3.84375 6.796875 3.605469 6.796875 L 1.96875 6.796875 L 1.644531 5.996094 L 3.203125 5.996094 C 3.445312 5.996094 3.605469 5.835938 3.605469 5.597656 C 3.605469 5.355469 3.445312 5.195312 3.203125 5.195312 L 1.324219 5.195312 L 1.003906 4.398438 L 6.167969 4.398438 L 7.246094 5.996094 L 4.804688 5.996094 C 4.644531 5.996094 4.527344 6.078125 4.445312 6.199219 C 4.367188 6.316406 4.367188 6.476562 4.445312 6.597656 L 8.132812 13.5625 Z M 12.007812 19.164062 L 9.265625 13.960938 C 9.257812 13.90625 9.238281 13.847656 9.207031 13.800781 L 5.484375 6.796875 L 18.53125 6.796875 L 14.808594 13.800781 C 14.777344 13.847656 14.757812 13.90625 14.753906 13.960938 Z M 20.292969 11.320312 C 20.132812 11.640625 19.972656 11.960938 19.730469 12.238281 C 19.011719 13.082031 17.972656 13.601562 16.851562 13.601562 L 15.863281 13.601562 L 19.570312 6.597656 C 19.652344 6.476562 19.652344 6.316406 19.570312 6.199219 C 19.492188 6.078125 19.371094 5.996094 19.210938 5.996094 L 16.730469 5.996094 L 17.8125 4.398438 L 23.011719 4.398438 L 22.699219 5.195312 L 20.8125 5.195312 C 20.574219 5.195312 20.414062 5.355469 20.414062 5.597656 C 20.414062 5.835938 20.574219 5.996094 20.8125 5.996094 L 22.382812 5.996094 L 22.070312 6.796875 L 20.414062 6.796875 C 20.171875 6.796875 20.011719 6.957031 20.011719 7.199219 C 20.011719 7.4375 20.171875 7.597656 20.414062 7.597656 L 21.753906 7.597656 L 21.441406 8.398438 L 19.613281 8.398438 C 19.371094 8.398438 19.210938 8.558594 19.210938 8.796875 C 19.210938 9.039062 19.371094 9.199219 19.613281 9.199219 L 21.125 9.199219 Z M 20.292969 11.320312"/>
</svg>

<svg xmlns="http://www.w3.org/2000/svg" width="32" height="32" viewBox="0 0 24 24">
    <path d="M16.89 8.2a.36.36 0 0 0 0-.403.422.422 0 0 0-.359-.2H7.445c-.117 0-.238.083-.32.2a.375.375 0 0 0 0 .402l4.523 8.602c.082.12.2.203.36.203.16 0 .281-.082.36-.203zm-4.882 7.523l-3.88-7.325h7.763zm0 0"/>
    <path d="M22.652 7.453a.423.423 0 0 0 .078-.191l.551-1.395a.395.395 0 0 0 .09-.23l.602-1.52a.373.373 0 0 0-.04-.36c-.078-.081-.199-.16-.32-.16H17.61c-.117 0-.238.079-.359.2l-1.465 2.2H8.22l-1.492-2.24c-.082-.081-.2-.16-.32-.16H.401c-.117 0-.238.118-.32.2a.302.302 0 0 0-.039.36l.61 1.527c.007.058.03.109.058.152l.586 1.469a.308.308 0 0 0 .047.117l.597 1.504c.008.027.02.054.032.078l1.03 2.598c.161.398.403.796.68 1.117a4.384 4.384 0 0 0 3.485 1.683h1.41l3.07 5.801c.082.121.2.2.36.2.16 0 .281-.079.36-.2l3.073-5.8h1.41c1.36 0 2.641-.602 3.481-1.684.281-.32.52-.719.68-1.117l1.015-2.57a.322.322 0 0 0 .055-.141zm-15.445 6.11c-1.121 0-2.16-.481-2.883-1.364a3.166 3.166 0 0 1-.558-.918L2.93 9.2h1.476c.239 0 .399-.16.399-.402 0-.238-.16-.399-.399-.399H2.61l-.32-.8h1.316c.239 0 .399-.16.399-.399 0-.242-.16-.402-.399-.402H1.97l-.324-.8h1.558c.242 0 .402-.161.402-.4 0-.242-.16-.402-.402-.402H1.324l-.32-.797h5.164l1.078 1.598H4.805a.422.422 0 0 0-.36.203.368.368 0 0 0 0 .399l3.688 6.965zm4.8 5.601l-2.741-5.203a.397.397 0 0 0-.059-.16L5.484 6.797h13.047L14.81 13.8a.341.341 0 0 0-.055.16zm8.286-7.844c-.16.32-.32.64-.563.918-.718.844-1.757 1.364-2.878 1.364h-.989l3.707-7.004a.353.353 0 0 0 0-.399.417.417 0 0 0-.36-.203h-2.48l1.082-1.598h5.2l-.313.797h-1.887c-.238 0-.398.16-.398.403 0 .238.16.398.398.398h1.57l-.312.8h-1.656c-.242 0-.402.161-.402.403 0 .239.16.399.402.399h1.34l-.313.8h-1.828c-.242 0-.402.16-.402.399 0 .242.16.402.402.402h1.512zm0 0"/>
</svg>
